X:3437
L:1/8
M:6/8
K:G
 (GDE) (G2 A) | (BGe) (d2 e) | (dBB){c} (BAB) | (GAB) (A2 B) | (D2 E) (G2 A) | (BGe) ((d2 e)) | 
 (dBA) ((G2 A)) | (BG)G G2 || d | (e2 e) (edB) | (e2 e) (edB) | (ded) (dBA) | (BGe) (d2 (c/A/)) | 
 (BDE) (G2 A) | (Bge) (d2 e) | (dBA) (G2 A) | (BG)G G2 ||

